Numix/16/panel/indicator-stickynotes-mono.svg

<svg version="1.1" viewBox="0 0 16 16" xmlns="http://www.w3.org/2000/svg">
 <path d="m1 1v14h14v-14zm2 2h2v2h-2zm4 0h6v2h-6zm-4 4h2v2h-2zm4 0h6v2h-6zm-4 4h2v2h-2zm4 0h6v2h-6z" style="fill:#ececec"/>
</svg>

<svg xmlns="http://www.w3.org/2000/svg" viewBox="0 0 16 16">
 <path d="m 1,1 0,7 -1,6 1,0 0,1 14,0 0,-1 1,0 -1,-6 0,-7 z M 3,3 5,3 5,5 3,5 Z m 4,0 6,0 0,2 -6,0 z M 3,7 5,7 5,9 3,9 Z m 4,0 6,0 0,2 -6,0 z m -4,4 2,0 0,2 -2,0 z m 4,0 6,0 0,2 -6,0 z" style="fill:#ececec;opacity:1;fill-opacity:1;stroke:none;fill-rule:nonzero"/>
</svg>
